X: 7069
T: Chris Droney's Favourite
R: reel
M: 4/4
K: Edorian
BEED ~E2fd|edBc dBAG|FDAD BDAD|FDFA dBAF|
BE~E2 (3Bcd fd|edBc defd|edef dBAF|1 DEFD ~E3D:|2 DEFD E3z||
|:e2Be edfd|edBe dBAG|FDAD BDAG|FDFA dBAF|
Be~e2 edfd|edBc defd|edef dBAF|1 DEFD E2Bd:|2 DEFD ~E3D||

